src/assets/svg/icons/fa/nuevos/classic/regular/octagon-divide classic regular.svg

<svg xmlns="http://www.w3.org/2000/svg" viewBox="0 0 512 512"><path d="M224 159.1C224 142.3 238.3 127.1 256 127.1C273.7 127.1 288 142.3 288 159.1C288 177.7 273.7 191.1 256 191.1C238.3 191.1 224 177.7 224 159.1zM344 231.1C357.3 231.1 368 242.7 368 255.1C368 269.3 357.3 279.1 344 279.1H168C154.7 279.1 144 269.3 144 255.1C144 242.7 154.7 231.1 168 231.1H344zM288 351.1C288 369.7 273.7 383.1 256 383.1C238.3 383.1 224 369.7 224 351.1C224 334.3 238.3 319.1 256 319.1C273.7 319.1 288 334.3 288 351.1zM.0669 191.5C.0669 172.4 7.652 154.1 21.16 140.6L140.6 21.15C154.1 7.648 172.4 .0625 191.5 .0625H320.5C339.6 .0625 357.9 7.648 371.4 21.15L490.8 140.6C504.3 154.1 511.9 172.4 511.9 191.5V320.5C511.9 339.6 504.3 357.9 490.8 371.4L371.4 490.8C357.9 504.3 339.6 511.9 320.5 511.9H191.5C172.4 511.9 154.1 504.3 140.6 490.8L21.15 371.4C7.652 357.9 .0666 339.6 .0666 320.5L.0669 191.5zM55.1 174.5C50.6 179 48.07 185.2 48.07 191.5V320.5C48.07 326.8 50.6 332.9 55.1 337.4L174.5 456.9C179 461.4 185.2 463.9 191.5 463.9H320.5C326.8 463.9 332.1 461.4 337.5 456.9L456.9 337.4C461.4 332.9 463.9 326.8 463.9 320.5V191.5C463.9 185.2 461.4 179 456.9 174.5L337.5 55.09C332.1 50.59 326.8 48.06 320.5 48.06H191.5C185.2 48.06 179 50.59 174.5 55.09L55.1 174.5zM21.15 371.4L55.1 337.4z"/></svg>

<svg xmlns="http://www.w3.org/2000/svg" viewBox="0 0 512 512"><!--! Font Awesome Pro 6.4.0 by @fontawesome - https://fontawesome.com License - https://fontawesome.com/license (Commercial License) Copyright 2023 Fonticons, Inc. --><path d="M191.5 48.1c-6.4 0-12.5 2.5-17 7L55.1 174.5c-4.5 4.5-7 10.6-7 17v129c0 6.4 2.5 12.5 7 17L21.2 371.4C7.7 357.9 .1 339.6 .1 320.5v-129c0-19.1 7.6-37.4 21.1-50.9L140.6 21.2C154.1 7.7 172.4 .1 191.5 .1h129c19.1 0 37.4 7.6 50.9 21.1L490.8 140.6c13.5 13.5 21.1 31.8 21.1 50.9v129c0 19.1-7.6 37.4-21.1 50.9L371.4 490.8c-13.5 13.5-31.8 21.1-50.9 21.1h-129c-19.1 0-37.4-7.6-50.9-21.1L21.2 371.4l33.9-33.9L174.5 456.9c4.5 4.5 10.6 7 17 7h129c6.4 0 12.5-2.5 17-7L456.9 337.5c4.5-4.5 7-10.6 7-17v-129c0-6.4-2.5-12.5-7-17L337.5 55.1c-4.5-4.5-10.6-7-17-7h-129zM256 128a32 32 0 1 1 0 64 32 32 0 1 1 0-64zM168 232H344c13.3 0 24 10.7 24 24s-10.7 24-24 24H168c-13.3 0-24-10.7-24-24s10.7-24 24-24zm56 120a32 32 0 1 1 64 0 32 32 0 1 1 -64 0z"/></svg>
